X:1
T:The Doon
R:reel
M:4/4
L:1/8
K:D
|:DFAF BFAF|DFAF E2EF|D2FA BAFA|(3Bcd ec dBAF|
|DFAF BFAF|DEFD EDEF|D2FA BAFA|1 (3Bcd ec dz2F:|2 (3Bcd ec d2AB|]
|:d2fd Adfd|~d2 fd BAFA|d2fd Adfa|~g2 fg edBA|
d2fd Adfd|~d2 fd e2ef|1 (3gfe fd edcB|cdec dBAB:|2 (3gfe fd edcA|~B2 Bc dBAF|]